X:1     %Music
T:She's like the Swallow
B:Singing Together, Spring 1976, BBC Publications
F:http://www.folkinfo.org/songs
M:6/4     %Meter
L:1/8     %
K:F
D2 |A4 A2 A2 G2 A2 |D4 E2 F4 c2 |d4 d2 f2 e2 d2 | A2 A2 =B2 c4
w:She's like the swall-ow that flies so high. She's like the ri-ver that ne-ver runs dry, 
 A2 |d4 d2 (f2e2) d2 |c2 c2 c2 F4 G2 |A4 d2 (d2c2) A2 | F2 D2 E2 D6 |]
w:She's like the sun--shine on the lee shore, I love my love_ and love is no more. 
    